src/images/place-black-18dp.svg

<svg enable-background="new 0 0 24 24" height="18" viewBox="0 0 24 24" width="18" xmlns="http://www.w3.org/2000/svg"><path d="m18.5 10.2c0 2.57-2.1 5.79-6.16 9.51l-.34.3-.34-.31c-4.06-3.71-6.16-6.93-6.16-9.5 0-3.84 2.82-6.7 6.5-6.7s6.5 2.85 6.5 6.7z" fill-opacity=".3"/><path d="m12 2c4.2 0 8 3.22 8 8.2 0 3.32-2.67 7.25-8 11.8-5.33-4.55-8-8.48-8-11.8 0-4.98 3.8-8.2 8-8.2zm6 8.2c0-3.63-2.65-6.2-6-6.2s-6 2.57-6 6.2c0 2.34 1.95 5.44 6 9.14 4.05-3.7 6-6.8 6-9.14zm-6 1.8c-1.1 0-2-.9-2-2s.9-2 2-2 2 .9 2 2-.9 2-2 2z"/><path d="m0 0h24v24h-24z" fill="none"/></svg>

<svg xmlns="http://www.w3.org/2000/svg" enable-background="new 0 0 24 24" version="1" viewBox="0 0 24 24" fill="black" width="18px" height="18px"><path d="M18.5,10.2c0,2.57-2.1,5.79-6.16,9.51L12,20.01l-0.34-0.31C7.6,15.99,5.5,12.77,5.5,10.2 c0-3.84,2.82-6.7,6.5-6.7S18.5,6.35,18.5,10.2z" fill-opacity=".3"/><path d="M12,2c4.2,0,8,3.22,8,8.2c0,3.32-2.67,7.25-8,11.8c-5.33-4.55-8-8.48-8-11.8C4,5.22,7.8,2,12,2z M18,10.2 C18,6.57,15.35,4,12,4s-6,2.57-6,6.2c0,2.34,1.95,5.44,6,9.14C16.05,15.64,18,12.54,18,10.2z M12,12c-1.1,0-2-0.9-2-2s0.9-2,2-2 s2,0.9,2,2S13.1,12,12,12z"/><path d="M0,0h24v24H0V0z" fill="none"/></svg>
